X:1
T:Tell Me More About Jesus
T:Tell Me More About Jesus
T:James McGranahan, 1877
T:Philip Paul Bliss, 1876
T:Public Domain Courtesy of the Cyber Hymnal™
T:Public Domain Courtesy of the Cyber Hymnal™
C:James McGranahan, 1877
Z:Public Domain
Z:Courtesy of the Cyber Hymnal™
%%score ( 1 2 ) ( 3 4 )
L:1/8
Q:1/4=95
M:6/8
K:Eb
V:1 treble 
V:2 treble 
V:3 bass 
V:4 bass 
V:1
 E | [EG]2 [EG] (G^F)[EG] | [GB]2 [GB] ([GB][FA])[EG] | [DF]2 [DF] ([DF][EG])[FA] | %4
w: 1.~’Tis|known on earth * and|Hea- ven, too, * ’Tis|sweet to me * be-|
w: 2.~Earth’s|fair- est flowers * will|droop and die, * Dark|clouds o’er- spread * yon|
w: 3.~When|o- ver- whelmed * with|un- be- lief, * When|bur- dened with * a|
w: 4.~And|when the glo- * ry|land I see, * And|take the place * pre-|
 ([Ac][GB])[FA] [EG]2 E | [EG]2 [EG] (G^F)[EG] | [GB]2 [GB] ([GB][^F=A][GB]) | %7
w: cause * it’s true; The|old, old sto- * ry|is e’er new; * *|
w: a- * zure sky, Life’s|dear- est joys * flit|fleet- est by; * *|
w: blind- * ing grief, Come|kind- ly then * to|my re- lief; * *|
w: pared * for me, Through|end- less years * my|song shall be, * *|
 [Ge]2 [Ge] [Fe][Fd][Fc] | [^Ec]3 [DB]3 ||"^Refrain" [EB]2 [EG] [EG][FA][GB] | [Ac]3 [GB]3 | %11
w: Tell me more a- bout|Je- sus.|||
w: Tell me more a- bout|Je- sus.|||
w: Tell me more a- bout|Je- sus.|||
w: Tell me more a- bout|Je- sus.|||
 [GB]2 [Ac] [GB][EG][B,E] | [EG]3 [DF]3 | [EG][E^F][E=G] [EB]2 [GB] | %14
w: |||
w: |||
w: |||
w: |||
 (c=B)[Ac] (!fermata!e2 !fermata!c) | [GB]2 [Ac] [GB][EG][B,E] | [B,F]3 [B,E]2 |] %17
w: |||
w: |||
w: |||
w: |||
V:2
 E | x3 E2 x | x6 | x6 | x5 E | x3 E2 x | x6 | x6 | x6 || x6 | x6 | x6 | x6 | x6 | A2 G3 x | x6 | %16
 x5 |] %17
V:3
 [E,G,] | [E,B,]2 [E,B,] (B,=A,)[E,B,] | [E,E]2 [E,E] [E,E]2 [E,B,] | %3
w: ~|~ ~ ~ * ~|~ ~ ~ ~|
 [B,,B,]2 [B,,B,] [B,,B,]2 [B,,B,] | [B,,B,]2 [B,,B,] [E,B,]2 [E,G,] | %5
w: ~ ~ ~ ~|~ ~ ~ ~|
 [E,B,]2 [E,B,] (B,=A,)[E,B,] | [E,E]2 [E,E] [E,E]3 | [C,E]2 [C,C] [F,C][F,B,][F,=A,] | %8
w: ~ ~ ~ * ~|~ ~ ~|~ ~ ~ ~ ~|
 [F,=A,]3 [B,,B,]3 || [E,G,]2 [E,B,] [E,B,][E,E][E,E] | [A,,E]3 [E,E]3 | %11
w: ~ ~|Tell me more a- bout|Je- sus,|
 [E,E]2 [E,E] [E,E][E,B,][E,G,] | [B,,B,]3 [B,,B,]3 | [E,B,][E,=A,][E,B,] [E,G,]2 [E,B,] | %14
w: Tell me more a- bout|Je- sus;|Him would I know who|
 (ED)[A,E] (!fermata!C2 !fermata!D) | [E,E]2 [E,E] [E,E][E,B,][E,G,] | [B,,A,]3 [E,G,]2 |] %17
w: loved * me so; *|Tell me more a- bout|Je- sus.|
V:4
 x | x3 E,2 x | x6 | x6 | x6 | x3 E,2 x | x6 | x6 | x6 || x6 | x6 | x6 | x6 | x6 | A,2 A,3 x | x6 | %16
 x5 |] %17

